public/images/illustrations/homepage-static.svg

<svg viewBox="0 0 113.2 94.3" xmlns="http://www.w3.org/2000/svg"><style>.st0{display:none;}.st1{display:inline;}.st2{fill:#C2F4FF;}.st3{fill:#00A9DE;}.st4{fill:#004F84;}.st5{fill:#FFFFFF;}.st6{fill:#FFFFFF;stroke:#C8D7E2;stroke-miterlimit:10;}.st7{fill:none;stroke:#C8D7E2;stroke-width:1.1353;stroke-miterlimit:10;}.st8{fill:#C8D7E2;}.st9{fill:#74DCFC;}.st10{fill:#DAE4ED}</style><g class="st0"><g class="st1"><path class="st2" d="M1.8,94.3V12.1V8c0-3.6,2.9-6.5,6.5-6.5h96.6c3.6,0,6.5,2.9,6.5,6.5v86.3H1.8z"/><path class="st3" d="M1.8,18.6v-5.9V7.8C1.8,3.5,4.7,0,8.3,0h96.6c3.6,0,6.5,3.5,6.5,7.8v10.8H1.8z"/><path class="st4" d="m113.2 18.6c-9.4 0.8-18.9 0.7-28.3 0.8l-28.3 0.1-28.3-0.1c-9.4 0-18.9 0-28.3-0.8v-0.5c9.4-0.8 18.9-0.7 28.3-0.8l28.3-0.1 28.3 0.1c9.4 0 18.9 0 28.3 0.8v0.5z"/><polyline class="st5" points="101.8 84.1 69 84.1 69 28.9 101.8 28.9"/><path class="st2" d="m89.3 52.1h-12.3v-11.5c0-2.9 2.4-5.3 5.3-5.3h12.6v11.3c-0.1 3-2.5 5.5-5.6 5.5z"/><path class="st3" d="m94.6 78.4h-17.6v-20.2h17.8v20c0 0.1-0.1 0.2-0.2 0.2z"/><polyline class="st5" points="57.6 84.5 10.2 84.5 10.2 45.2 62.4 45.2 62.4 84.5"/><path class="st4" d="M57.6,38.3H10.2v-3.6c0-3.2,2.6-5.8,5.8-5.8h46.5v9.4"/><path class="st6" d="m45.2 73.3s-1-2.6-3.5-3.1c-1.3-0.2-2.5 0.1-3.2 0.5-0.8 0.4-1 1.4-0.4 2 0.6 0.7 1.5 1.5 2.9 1.7 2.5 0.5 4.2-1.1 4.2-1.1z"/><path class="st6" d="m52.7 75.5c0.7-0.5 0.8-1.5 0.2-2.1-0.7-0.6-1.7-1.3-3.1-1.3-2.6 0-4.1 2.1-4.1 2.1s1.4 2.3 4.1 2.3c1.2 0 2.2-0.5 2.9-1z"/><path class="st6" d="m53.8 69.2c0.7-0.4 0.9-1.4 0.3-2.1s-1.6-1.4-3-1.6c-2.6-0.2-4.3 1.7-4.3 1.7s1.2 2.4 3.9 2.6c1.3 0.2 2.3-0.2 3.1-0.6z"/><path class="st6" d="m56.4 63.6c0.8-0.2 1.2-1.2 0.8-1.9-0.4-0.8-1.2-1.8-2.5-2.2-2.5-0.8-4.6 0.7-4.6 0.7s0.6 2.6 3.2 3.4c1.2 0.4 2.3 0.2 3.1 0z"/><path class="st6" d="m46.7 67s0-2.8-2.3-4.1c-1.2-0.7-2.3-0.7-3.2-0.6-0.8 0.1-1.4 1-1.1 1.8 0.3 0.9 0.9 1.9 2.1 2.6 2.3 1.3 4.5 0.3 4.5 0.3z"/><path class="st6" d="m49.9 60.9s0.4-2.8-1.7-4.4c-0.9-0.7-1.9-1-2.7-1.1-1.1-0.1-2 0.9-1.7 2 0.2 0.8 0.7 1.7 1.6 2.5 2.2 1.7 4.5 1 4.5 1z"/><path class="st7" d="m45.2 73.3s-1-2.6-3.5-3.1c-1.3-0.2-2.5 0.1-3.2 0.5-0.8 0.4-1 1.4-0.4 2 0.6 0.7 1.5 1.5 2.9 1.7 2.5 0.5 4.2-1.1 4.2-1.1z"/><path class="st7" d="m52.7 75.5c0.7-0.5 0.8-1.5 0.2-2.1-0.7-0.6-1.7-1.3-3.1-1.3-2.6 0-4.1 2.1-4.1 2.1s1.4 2.3 4.1 2.3c1.2 0 2.2-0.5 2.9-1z"/><path class="st7" d="m53.8 69.2c0.7-0.4 0.9-1.4 0.3-2.1s-1.6-1.4-3-1.6c-2.6-0.2-4.3 1.7-4.3 1.7s1.2 2.4 3.9 2.6c1.3 0.2 2.3-0.2 3.1-0.6z"/><path class="st7" d="m56.4 63.6c0.8-0.2 1.2-1.2 0.8-1.9-0.4-0.8-1.2-1.8-2.5-2.2-2.5-0.8-4.6 0.7-4.6 0.7s0.6 2.6 3.2 3.4c1.2 0.4 2.3 0.2 3.1 0z"/><path class="st7" d="m46.7 67s0-2.8-2.3-4.1c-1.2-0.7-2.3-0.7-3.2-0.6-0.8 0.1-1.4 1-1.1 1.8 0.3 0.9 0.9 1.9 2.1 2.6 2.3 1.3 4.5 0.3 4.5 0.3z"/><path class="st7" d="m49.9 60.9s0.4-2.8-1.7-4.4c-0.9-0.7-1.9-1-2.7-1.1-1.1-0.1-2 0.9-1.7 2 0.2 0.8 0.7 1.7 1.6 2.5 2.2 1.7 4.5 1 4.5 1z"/><path class="st8" d="m29.1 78.1c-0.2-0.9-0.3-1.9-0.2-2.8s0.2-1.8 0.5-2.7c0.2-0.9 0.6-1.8 0.9-2.6 0.4-0.8 0.8-1.7 1.4-2.4l0.3 0.2c-0.6 1.7-1.2 3.4-1.6 5.1-0.2 0.9-0.4 1.7-0.6 2.6s-0.3 1.7-0.6 2.6h-0.1z"/><path class="st8" d="m28.8 78.1c-0.2-0.7-0.2-1.4 0.1-2.1s0.6-1.3 1.1-1.8c0.9-1 2-1.8 3.1-2.5l0.3 0.3c-0.4 0.6-0.8 1.1-1.3 1.5-0.5 0.5-0.9 0.9-1.3 1.4s-0.8 0.9-1 1.5c-0.3 0.5-0.5 1-0.8 1.7h-0.2z"/><path class="st3" d="m10.2 80.5c13.5-5.6 42.7-1.9 52.3 4l-52.3-0.2v-3.8z"/><path class="st8" d="m45.4 79c-0.3-2-0.3-4-0.1-6.1 0.2-2 0.6-4 1.2-6 1.2-3.9 3.4-7.6 6.6-10.1l0.3 0.3c-1.3 1.5-2.5 3.1-3.5 4.8s-1.8 3.5-2.3 5.4c-0.6 1.9-1 3.8-1.2 5.8-0.3 2-0.5 3.9-0.7 5.9h-0.3z"/><circle class="st2" cx="12.3" cy="9.1" r="1.6"/><circle class="st9" cx="20.8" cy="9.1" r="1.6"/><circle class="st9" cx="29.3" cy="9.1" r="1.6"/></g></g><path class="st5" d="M1.8,94.3V12.1V8c0-3.6,2.9-6.5,6.5-6.5h96.6c3.6,0,6.5,2.9,6.5,6.5v86.3H1.8z"/><rect class="st2" x="1.9" y="18.1" width="109.6" height="30.4"/><path class="st3" d="M1.8,18.6v-5.9V7.8C1.8,3.5,4.7,0,8.3,0h96.6c3.6,0,6.5,3.5,6.5,7.8v10.8H1.8z"/><path class="st4" d="m113.2 18.6c-9.4 0.8-18.9 0.7-28.3 0.8l-28.3 0.1-28.3-0.1c-9.4 0-18.9 0-28.3-0.8v-0.5c9.4-0.8 18.9-0.7 28.3-0.8l28.3-0.1 28.3 0.1c9.4 0 18.9 0 28.3 0.8v0.5z"/><circle class="st2" cx="12.3" cy="9.1" r="1.6"/><circle class="st9" cx="20.8" cy="9.1" r="1.6"/><circle class="st9" cx="29.3" cy="9.1" r="1.6"/><path class="st4" d="M1.6,42.2c19.5-1.5,41.7,6.3,41.7,6.3H1.6V42.2z"/><path class="st5" d="m77.4 38.3c-0.6 2.3-2.2 4.3-4.3 5.4s-4.7 1.4-7 0.6c-2.3-0.7-4.3-2.5-5.4-4.6-1.1-2.2-1.3-4.8-0.5-7.1s2.5-4.3 4.7-5.4 4.8-1.3 7.1-0.5 4.2 2.5 5.2 4.7 1.1 4.7 0.2 6.9zm-0.3-0.1c0.7-2.2 0.4-4.5-0.6-6.5s-2.8-3.5-4.9-4.1c-2.1-0.7-4.4-0.5-6.3 0.5s-3.4 2.7-4.1 4.8c-0.7 2-0.5 4.3 0.4 6.3 0.9 1.9 2.7 3.5 4.7 4.2s4.4 0.6 6.4-0.3c2-1 3.7-2.7 4.4-4.9z"/><path class="st5" d="m77.2 32.3c-1.2 0.8-2.6 1.5-3.9 2.1s-2.7 1.2-4 1.8c-2.7 1.1-5.4 2.3-8.2 3.1-0.1 0-0.2 0-0.2-0.1s0-0.2 0.1-0.2c2.6-1.5 5.3-2.6 7.9-3.8 1.3-0.6 2.7-1.1 4.1-1.7 1.4-0.5 2.7-1 4.2-1.3 0.1 0 0.1 0 0.1 0.1h-0.1z"/><path class="st5" d="m77.1 39c-1.5-0.3-2.8-0.8-4.2-1.3s-2.7-1-4.1-1.6c-2.7-1.2-5.4-2.2-8-3.6-0.1-0.1-0.1-0.2-0.1-0.3s0.1-0.1 0.2-0.1c2.8 0.8 5.5 1.9 8.3 2.9 1.4 0.5 2.7 1.1 4 1.7s2.7 1.2 3.9 2c0 0 0.1 0.1 0 0.1 0.1 0.2 0.1 0.3 0 0.2z"/><path class="st5" d="m74.6 49.1c-1-1.7-1.8-3.4-2.6-5.2s-1.6-3.5-2.3-5.3c-1.5-3.6-3-7.2-4.2-10.9 0-0.1 0-0.2 0.1-0.3 0.1 0 0.2 0 0.2 0.1 1.8 3.4 3.3 7 4.9 10.6 0.8 1.8 1.5 3.6 2.2 5.4s1.4 3.6 1.9 5.5c0 0.1 0 0.1-0.1 0.1h-0.1z"/><path class="st5" d="m63.6 48.9c0.5-1.9 1.1-3.7 1.8-5.5s1.4-3.6 2.1-5.4c1.5-3.5 2.9-7.1 4.7-10.5 0.1-0.1 0.2-0.1 0.3-0.1s0.1 0.1 0.1 0.2c-1.1 3.7-2.6 7.2-4 10.8-0.7 1.8-1.5 3.6-2.2 5.3-0.8 1.8-1.6 3.5-2.5 5.2 0 0-0.1 0.1-0.1 0-0.2 0.1-0.2 0-0.2 0z"/><ellipse class="st2" transform="matrix(.3163 -.9487 .9487 .3163 13.478 89.725)" cx="69" cy="35.5" rx="1.3" ry="1.3"/><path class="st5" d="m69 37.3c-0.2 0-0.4 0-0.6-0.1-0.4-0.1-0.8-0.5-1-0.9s-0.2-0.9-0.1-1.3 0.5-0.8 0.9-1 0.9-0.2 1.3-0.1c0.9 0.3 1.4 1.3 1.1 2.2-0.2 0.7-0.9 1.2-1.6 1.2zm0-2.6c-0.1 0-0.2 0-0.3 0.1-0.2 0.1-0.3 0.2-0.4 0.4s-0.1 0.4 0 0.6 0.2 0.3 0.4 0.4c0.4 0.1 0.8-0.1 1-0.5 0.1-0.4-0.1-0.8-0.5-1-0.1 0.1-0.1 0-0.2 0zm1.2 1.2z"/><path class="st2" d="m60.6 40.1c-0.6 0-1.1-0.5-1.1-1.1v-0.6h2.3v0.6c-0.1 0.6-0.6 1.1-1.2 1.1z"/><path class="st5" d="m60.6 40.6c-0.9 0-1.6-0.7-1.6-1.6v-0.6c0-0.3 0.2-0.5 0.5-0.5h2.3c0.3 0 0.5 0.2 0.5 0.5v0.6c-0.1 0.9-0.8 1.6-1.7 1.6zm-0.7-1.7v0.1c0 0.3 0.3 0.6 0.6 0.6s0.6-0.3 0.6-0.6v-0.1h-1.2z"/><path class="st2" d="m60.2 33.6c-0.6 0-1.1-0.5-1.1-1.1v-0.6h2.3v0.6c-0.1 0.6-0.6 1.1-1.2 1.1z"/><path class="st5" d="m60.2 34.1c-0.9 0-1.6-0.7-1.6-1.6v-0.6c0-0.3 0.2-0.5 0.5-0.5h2.3c0.3 0 0.5 0.2 0.5 0.5v0.6c-0.1 0.9-0.8 1.6-1.7 1.6zm-0.6-1.8v0.1c0 0.3 0.3 0.6 0.6 0.6s0.6-0.3 0.6-0.6v-0.1h-1.2z"/><path class="st2" d="m65.6 45.1c-0.6 0-1.1-0.5-1.1-1.1v-0.6h2.3v0.6c-0.1 0.6-0.6 1.1-1.2 1.1z"/><path class="st5" d="m65.6 45.6c-0.9 0-1.6-0.7-1.6-1.6v-0.6c0-0.3 0.2-0.5 0.5-0.5h2.3c0.3 0 0.5 0.2 0.5 0.5v0.6c-0.1 0.9-0.8 1.6-1.7 1.6zm-0.6-1.8v0.2c0 0.3 0.3 0.6 0.6 0.6s0.6-0.3 0.6-0.6v-0.1h-1.2z"/><path class="st2" d="m65.1 28.5c-0.6 0-1.1-0.5-1.1-1.1v-0.6h2.3v0.6c-0.1 0.6-0.6 1.1-1.2 1.1z"/><path class="st5" d="m65.1 29c-0.9 0-1.6-0.7-1.6-1.6v-0.6c0-0.3 0.2-0.5 0.5-0.5h2.3c0.3 0 0.5 0.2 0.5 0.5v0.6c-0.1 0.9-0.8 1.6-1.7 1.6zm-0.7-1.8v0.1c0 0.3 0.3 0.6 0.6 0.6s0.6-0.3 0.6-0.6v-0.1h-1.2z"/><path class="st2" d="m77.4 40.1c0.6 0 1.1-0.5 1.1-1.1v-0.6h-2.3v0.6c0.1 0.6 0.6 1.1 1.2 1.1z"/><path class="st5" d="m77.4 40.6c-0.9 0-1.6-0.7-1.6-1.6v-0.6c0-0.3 0.2-0.5 0.5-0.5h2.3c0.3 0 0.5 0.2 0.5 0.5v0.6c-0.1 0.9-0.8 1.6-1.7 1.6zm-0.6-1.7v0.1c0 0.3 0.3 0.6 0.6 0.6s0.6-0.3 0.6-0.6v-0.1h-1.2z"/><path class="st2" d="m77.8 33.6c0.6 0 1.1-0.5 1.1-1.1v-0.6h-2.3v0.6c0 0.6 0.5 1.1 1.2 1.1z"/><path class="st5" d="m77.8 34.1c-0.9 0-1.6-0.7-1.6-1.6v-0.6c0-0.3 0.2-0.5 0.5-0.5h2.3c0.3 0 0.5 0.2 0.5 0.5v0.6c-0.1 0.9-0.8 1.6-1.7 1.6zm-0.7-1.8v0.1c0 0.3 0.3 0.6 0.6 0.6s0.6-0.3 0.6-0.6v-0.1h-1.2z"/><path class="st2" d="m72.4 45.1c0.6 0 1.1-0.5 1.1-1.1v-0.6h-2.3v0.6c0 0.6 0.5 1.1 1.2 1.1z"/><path class="st5" d="m72.4 45.6c-0.9 0-1.6-0.7-1.6-1.6v-0.6c0-0.3 0.2-0.5 0.5-0.5h2.3c0.3 0 0.5 0.2 0.5 0.5v0.6c-0.1 0.9-0.8 1.6-1.7 1.6zm-0.7-1.8v0.2c0 0.3 0.3 0.6 0.6 0.6s0.7-0.3 0.7-0.6v-0.1h-1.3z"/><path class="st2" d="m72.9 28.5c0.6 0 1.1-0.5 1.1-1.1v-0.6h-2.3v0.6c0.1 0.6 0.6 1.1 1.2 1.1z"/><path class="st5" d="m72.9 29c-0.9 0-1.6-0.7-1.6-1.6v-0.6c0-0.3 0.2-0.5 0.5-0.5h2.2c0.3 0 0.5 0.2 0.5 0.5v0.6c0 0.9-0.7 1.6-1.6 1.6zm-0.6-1.8v0.1c0 0.3 0.3 0.6 0.6 0.6s0.6-0.3 0.6-0.6v-0.1h-1.2z"/><circle class="st5" cx="13.8" cy="26.3" r="4.5"/><path class="st10" d="m46.5 89.5h-33.8v-33.1h38v28.9c0 2.3-1.9 4.2-4.2 4.2z"/><path class="st9" d="m92.6 89.5h-33.8v-33.1h38v28.9c0 2.3-1.9 4.2-4.2 4.2z"/><rect class="st3" x="58.8" y="56.4" width="38" height="8.2"/><rect class="st8" x="12.7" y="56.4" width="38" height="8.2"/></svg>

<svg id="static" xmlns="http://www.w3.org/2000/svg" x="0px" y="0px" viewBox="0 0 113.2 94.3">
<path fill="#FFFFFF" d="M1.8,94.3V12.1V8c0-3.6,2.9-6.5,6.5-6.5h96.6c3.6,0,6.5,2.9,6.5,6.5v86.3H1.8z"/>
<rect x="1.9" y="18.1" fill="#C2F4FF" width="109.6" height="30.4"/>
<path fill="#00A9DE" d="M1.8,18.6v-5.9V7.8C1.8,3.5,4.7,0,8.3,0h96.6c3.6,0,6.5,3.5,6.5,7.8v10.8H1.8z"/>
<path fill="#004F84" d="M113.2,18.6c-9.4,0.8-18.9,0.7-28.3,0.8l-28.3,0.1l-28.3-0.1c-9.4,0-18.9,0-28.3-0.8v-0.5 c8.6-0.7,17.4-0.7,26-0.8c0.8,0,1.5,0,2.3,0l28.3-0.1l28.3,0.1c9.4,0,18.9,0,28.3,0.8V18.6z"/>
<circle fill="#C2F4FF" cx="12.3" cy="9.1" r="1.6"/>
<circle fill="#74DCFC" cx="20.8" cy="9.1" r="1.6"/>
<circle fill="#74DCFC" cx="29.3" cy="9.1" r="1.6"/>
<path fill="#004F84" d="M1.6,42.2c19.5-1.5,41.7,6.3,41.7,6.3H1.6V42.2z"/>
<path fill="#FFFFFF" d="M77.4,38.3c-0.6,2.3-2.2,4.3-4.3,5.4c-2.1,1.1-4.7,1.4-7,0.6c-2.3-0.7-4.3-2.5-5.4-4.6 c-1.1-2.2-1.3-4.8-0.5-7.1s2.5-4.3,4.7-5.4s4.8-1.3,7.1-0.5c2.3,0.8,4.2,2.5,5.2,4.7C78.2,33.6,78.3,36.1,77.4,38.3L77.4,38.3z M77.1,38.2c0.7-2.2,0.4-4.5-0.6-6.5s-2.8-3.5-4.9-4.1c-2.1-0.7-4.4-0.5-6.3,0.5s-3.4,2.7-4.1,4.8c-0.7,2-0.5,4.3,0.4,6.3 c0.9,1.9,2.7,3.5,4.7,4.2s4.4,0.6,6.4-0.3C74.7,42.1,76.4,40.4,77.1,38.2L77.1,38.2z"/>
<path fill="#FFFFFF" d="M77.2,32.3c-1.2,0.8-2.6,1.5-3.9,2.1s-2.7,1.2-4,1.8c-2.7,1.1-5.4,2.3-8.2,3.1c-0.1,0-0.2,0-0.2-0.1 s0-0.2,0.1-0.2c2.6-1.5,5.3-2.6,7.9-3.8c1.3-0.6,2.7-1.1,4.1-1.7c1.4-0.5,2.7-1,4.2-1.3C77.3,32.2,77.3,32.2,77.2,32.3L77.2,32.3z"
/>
<path fill="#FFFFFF" d="M77.1,39c-1.5-0.3-2.8-0.8-4.2-1.3c-1.4-0.5-2.7-1-4.1-1.6c-2.7-1.2-5.4-2.2-8-3.6c-0.1-0.1-0.1-0.2-0.1-0.3 s0.1-0.1,0.2-0.1c2.8,0.8,5.5,1.9,8.3,2.9c1.4,0.5,2.7,1.1,4,1.7c1.3,0.6,2.7,1.2,3.9,2c0,0,0.1,0.1,0,0.1 C77.2,39,77.2,39.1,77.1,39z"/>
<path fill="#FFFFFF" d="M74.6,49.1c-1-1.7-1.8-3.4-2.6-5.2c-0.8-1.8-1.6-3.5-2.3-5.3c-1.5-3.6-3-7.2-4.2-10.9c0-0.1,0-0.2,0.1-0.3 c0.1,0,0.2,0,0.2,0.1c1.8,3.4,3.3,7,4.9,10.6c0.8,1.8,1.5,3.6,2.2,5.4c0.7,1.8,1.4,3.6,1.9,5.5C74.8,49.1,74.8,49.1,74.6,49.1 C74.7,49.1,74.7,49.1,74.6,49.1z"/>
<path fill="#FFFFFF" d="M63.6,48.9c0.5-1.9,1.1-3.7,1.8-5.5c0.7-1.8,1.4-3.6,2.1-5.4c1.5-3.5,2.9-7.1,4.7-10.5c0.1-0.1,0.2-0.1,0.3-0.1 c0.1,0,0.1,0.1,0.1,0.2c-1.1,3.7-2.6,7.2-4,10.8c-0.7,1.8-1.5,3.6-2.2,5.3c-0.8,1.8-1.6,3.5-2.5,5.2c0,0-0.1,0.1-0.1,0 C63.6,49,63.6,48.9,63.6,48.9z"/>
<ellipse fill="#C2F4FF" cx="69" cy="35.5" rx="1.3" ry="1.3"/>
<path fill="#FFFFFF" d="M69,37.3c-0.2,0-0.4,0-0.6-0.1c-0.4-0.1-0.8-0.5-1-0.9s-0.2-0.9-0.1-1.3c0.1-0.4,0.5-0.8,0.9-1s0.9-0.2,1.3-0.1 c0.9,0.3,1.4,1.3,1.1,2.2l0,0C70.4,36.8,69.7,37.3,69,37.3z M69,34.7c-0.1,0-0.2,0-0.3,0.1c-0.2,0.1-0.3,0.2-0.4,0.4s-0.1,0.4,0,0.6 c0.1,0.2,0.2,0.3,0.4,0.4c0.4,0.1,0.8-0.1,1-0.5c0.1-0.4-0.1-0.8-0.5-1C69.1,34.8,69.1,34.7,69,34.7z M70.2,35.9L70.2,35.9 L70.2,35.9z"/>
<path fill="#C2F4FF" d="M60.6,40.1L60.6,40.1c-0.6,0-1.1-0.5-1.1-1.1v-0.6h2.3V39C61.7,39.6,61.2,40.1,60.6,40.1z"/>
<path fill="#FFFFFF" d="M60.6,40.6c-0.9,0-1.6-0.7-1.6-1.6v-0.6c0-0.3,0.2-0.5,0.5-0.5h2.3c0.3,0,0.5,0.2,0.5,0.5V39 C62.2,39.9,61.5,40.6,60.6,40.6z M59.9,38.9L59.9,38.9c0,0.4,0.3,0.7,0.6,0.7s0.6-0.3,0.6-0.6v-0.1C61.1,38.9,59.9,38.9,59.9,38.9z"
/>
<path fill="#C2F4FF" d="M60.2,33.6L60.2,33.6c-0.6,0-1.1-0.5-1.1-1.1v-0.6h2.3v0.6C61.3,33.1,60.8,33.6,60.2,33.6z"/>
<path fill="#FFFFFF" d="M60.2,34.1c-0.9,0-1.6-0.7-1.6-1.6v-0.6c0-0.3,0.2-0.5,0.5-0.5h2.3c0.3,0,0.5,0.2,0.5,0.5v0.6 C61.8,33.4,61.1,34.1,60.2,34.1z M59.6,32.3L59.6,32.3c0,0.4,0.3,0.7,0.6,0.7s0.6-0.3,0.6-0.6v-0.1C60.8,32.3,59.6,32.3,59.6,32.3z"
/>
<path fill="#C2F4FF" d="M65.6,45.1L65.6,45.1c-0.6,0-1.1-0.5-1.1-1.1v-0.6h2.3V44C66.7,44.6,66.2,45.1,65.6,45.1z"/>
<path fill="#FFFFFF" d="M65.6,45.6c-0.9,0-1.6-0.7-1.6-1.6v-0.6c0-0.3,0.2-0.5,0.5-0.5h2.3c0.3,0,0.5,0.2,0.5,0.5V44 C67.2,44.9,66.5,45.6,65.6,45.6z M65,43.8V44c0,0.3,0.3,0.6,0.6,0.6s0.6-0.3,0.6-0.6v-0.1H65V43.8z"/>
<path fill="#C2F4FF" d="M65.1,28.5L65.1,28.5c-0.6,0-1.1-0.5-1.1-1.1v-0.6h2.3v0.6C66.2,28,65.7,28.5,65.1,28.5z"/>
<path fill="#FFFFFF" d="M65.1,29c-0.9,0-1.6-0.7-1.6-1.6v-0.6c0-0.3,0.2-0.5,0.5-0.5h2.3c0.3,0,0.5,0.2,0.5,0.5v0.6 C66.7,28.3,66,29,65.1,29z M64.4,27.2v0.1c0,0.3,0.3,0.6,0.6,0.6s0.6-0.3,0.6-0.6v-0.1H64.4z"/>
<path fill="#C2F4FF" d="M77.4,40.1L77.4,40.1c0.6,0,1.1-0.5,1.1-1.1v-0.6h-2.3V39C76.3,39.6,76.8,40.1,77.4,40.1z"/>
<path fill="#FFFFFF" d="M77.4,40.6c-0.9,0-1.6-0.7-1.6-1.6v-0.6c0-0.3,0.2-0.5,0.5-0.5h2.3c0.3,0,0.5,0.2,0.5,0.5V39 C79,39.9,78.3,40.6,77.4,40.6z M76.8,38.9L76.8,38.9c0,0.4,0.3,0.7,0.6,0.7S78,39.3,78,39v-0.1H76.8z"/>
<path fill="#C2F4FF" d="M77.8,33.6L77.8,33.6c0.6,0,1.1-0.5,1.1-1.1v-0.6h-2.3v0.6C76.6,33.1,77.1,33.6,77.8,33.6z"/>
<path fill="#FFFFFF" d="M77.8,34.1c-0.9,0-1.6-0.7-1.6-1.6v-0.6c0-0.3,0.2-0.5,0.5-0.5H79c0.3,0,0.5,0.2,0.5,0.5v0.6 C79.4,33.4,78.7,34.1,77.8,34.1z M77.1,32.3L77.1,32.3c0,0.4,0.3,0.7,0.6,0.7s0.6-0.3,0.6-0.6v-0.1C78.3,32.3,77.1,32.3,77.1,32.3z"
/>
<path fill="#C2F4FF" d="M72.4,45.1L72.4,45.1c0.6,0,1.1-0.5,1.1-1.1v-0.6h-2.3V44C71.2,44.6,71.7,45.1,72.4,45.1z"/>
<path fill="#FFFFFF" d="M72.4,45.6c-0.9,0-1.6-0.7-1.6-1.6v-0.6c0-0.3,0.2-0.5,0.5-0.5h2.3c0.3,0,0.5,0.2,0.5,0.5V44 C74,44.9,73.3,45.6,72.4,45.6z M71.7,43.8V44c0,0.3,0.3,0.6,0.6,0.6S73,44.3,73,44v-0.1h-1.3V43.8z"/>
<path fill="#C2F4FF" d="M72.9,28.5L72.9,28.5c0.6,0,1.1-0.5,1.1-1.1v-0.6h-2.3v0.6C71.8,28,72.3,28.5,72.9,28.5z"/>
<path fill="#FFFFFF" d="M72.9,29c-0.9,0-1.6-0.7-1.6-1.6v-0.6c0-0.3,0.2-0.5,0.5-0.5H74c0.3,0,0.5,0.2,0.5,0.5v0.6 C74.5,28.3,73.8,29,72.9,29z M72.3,27.2v0.1c0,0.3,0.3,0.6,0.6,0.6s0.6-0.3,0.6-0.6v-0.1H72.3z"/>
<circle fill="#FFFFFF" cx="13.8" cy="26.3" r="4.5"/>
<path fill="#C8D7E2" d="M46.5,89.5H12.7V56.4h38v28.9C50.7,87.6,48.8,89.5,46.5,89.5z"/>
<path fill="#74DCFC" d="M92.6,89.5H58.8V56.4h38v28.9C96.8,87.6,94.9,89.5,92.6,89.5z"/>
<rect x="58.8" y="56.4" fill="#00A9DE" width="38" height="8.2"/>
<rect x="12.7" y="56.4" fill="#86A6BD" width="38" height="8.2"/>
</svg>
